X:612
T:The Raven's Dance
T:Miss Lauren Holmes Patrick
C:Ian Holmes
S:Colin Hume's website,  colinhume.com  - chords can also be printed below the stave.
Q:3/8=120
M:6/8
L:1/8
K:G
P:A
D |: "G"GED "D7"G2A | "G"Bdd "D"edd | "Em"gfe "Bm"edB | "Am"AGA "Em"BGE |\
"D"GED "G"G2A | "Em"Bgf "C"efg | "G"edB "D7"AGA | "G"BGG G3 :|
P:B
|: "Em"Bee gee | "Em"bee "A7"gfe | "D"d^cd "A7"DFA | "D"dfe "D7"def |\
"G"gBB "Bm"dBB | "G"dgf "C"efg | "G"edB "D7"AGA | "G"BGG G3 :|

